!!!COM: Palestrina, Giovanni Perluigi da
!!!OPR: Missa Lauda Sion
!!!OMD: Credo
!!!OTL: Et vitam
**kern	**kern	**kern	**kern
*Ibass	*Itenor	*Icalto	*Icant
!Bassus	!Tenor	!Altus	!Cantus
*clefF4	*clefGv2	*clefG2	*clefG2
*k[]	*k[]	*k[]	*k[]
*G:mix	*G:mix	*G:mix	*G:mix
*M4/2	*M4/2	*M4/2	*M4/2
=124	=124	=124	=124
1D	1d	1f#	1dd
1G	1d	1g	1b
=125	=125	=125	=125
0C	2.e	2.g	2.cc
.	4d	4f	4b-
.	2c	4e	2a
.	.	4d	.
.	2B-	2e	2g
=126	=126	=126	=126
1D	1.A	2d	2f
.	.	1d	1f
1D	.	.	.
.	2F	[2f	[2a
=127	=127	=127	=127
1F	2.A	4f]	4a]
.	.	4e	4b
.	.	4c	1cc
.	4B	4d	.
1C	1c	1e	.
.	.	.	[2g
=128	=128	=128	=128
2.E	2.G	1e	2g]
.	.	.	2.b
4F	4A	.	.
1G	1B	[1d	.
.	.	.	4a
.	.	.	[2g
=129	=129	=129	=129
1.D	1.A	1d]	2g]
.	.	.	4f
.	.	.	4e
.	.	1d	2f#
2D	2A	.	2f#
=130	=130	=130	=130
1GG	1G	1d	1g
1r	1r	1r	1r
=131	=131	=131	=131
0G	0B	1.d	0g
.	.	2e	.
=132	=132	=132	=132
1F	1c	1.f	0a
1D	1d	.	.
.	.	4e	.
.	.	4d	.
=133	=133	=133	=133
2.G	1B	2e	0g
.	.	1d	.
4F	.	.	.
1E	1G	.	.
.	.	2c#	.
=134	=134	=134	=134
0D	0A	0d	0f#
=135	=135	=135	=135
0C	0c	0e	0g
=136	=136	=136	=136
[0GG	[0B	[0d	[0g
=137	=137	=137	=137
0GG]	0B]	0d]	0g]
==	==	==	==
*-	*-	*-	*-
!!!CDT: 1525/^1526/-1594/2/2
!!!OCY: Italia
!!!AGN: Mass (Parody)
!!!AST: renaissance, vocal
!!!ASW: Motet 1563 (Palestrina)
!!!PWK: Masses, Book 4
!!!RNB: Cadence finals: D
!!!YOR: Le Opere Complete, v. 10, p. 1
!!!YOO: Rome, Italy: Fratelli Scalera
!!!END: 1992//
!!!EED: John Miller
!!!YEC: Copyright 2000, John Miller
!!!YEN: United States of America
!!!YEM: Rights to all derivative electronic formats reserved.
!!!YEM: Refer to licensing agreement for further details.
!!!YEM: This file must be accompanied by the licensing agreement.
!!!YEM: A copy of the licensing agreement may be found at http://www.music-cog.ohio-state.edu/HumdrumDatabases/Palestrina/license.txt
!!!EMD: converted to Humdrum by Bret Aarden
